/* XPM */
static char *fc57640bd8174e4c9285ba24c148c6ffFbWDFBm0S9nX7UuY[] = {
/* columns rows colors chars-per-pixel */
"32 32 9 1 ",
"  c None",
". c #201F1F",
"X c #653600",
"o c #A30000",
"O c #EA1616",
"+ c #B26105",
"@ c #D27A17",
"# c #EAA621",
"$ c white",
/* pixels */
"              ooo               ",
"              +@+               ",
"              +#@               ",
"              ooo               ",
"              ooo               ",
"              ooo               ",
"              $$$               ",
"             +...+              ",
"            ++@#@++             ",
"            +@@#@@+             ",
"            +@###@++            ",
"           +@####@#+            ",
"           +#####@#+            ",
"           +##...@#+            ",
"           +#.Ooo.#+            ",
"           +.OOOOO.+            ",
"           +.$$$$$.+            ",
"           +.OOOOo.+            ",
"           +.O$$$$.+            ",
"           +.OOOOO.+            ",
"           +.O$$OO.+            ",
"           +@.Ooo.@+            ",
"           +@@...#@+            ",
"           +@@####@+            ",
"           ++@###@@+            ",
"           ++@###@@+            ",
"           ++@###@@+            ",
"           ++@###@@+            ",
"           +@@###@@+            ",
"           +XXXXXXX+            ",
"           XXXXXXXXX            ",
"                                "
};
