/* XPM */
static char *_89d47c6ffc44e0add8997d7d823b5f26Ms0witDD7Ou7muZ[] = {
/* columns rows colors chars-per-pixel */
"32 32 8 1 ",
"  c #0F1963",
". c #DD1515",
"X c #D9660B",
"o c #7BB812",
"O c #EAA621",
"+ c #2A3ED2",
"@ c #6C79DB",
"# c white",
/* pixels */
"                                ",
"                      o ###     ",
"     #####                      ",
"    #     #           . #### #  ",
"   #       #                    ",
"  #  #   #  #         O ## ## # ",
"  # # # # # #                   ",
"  # #  #  # #         + ## ###  ",
"  # #  #  # #                   ",
"  #         #         @ #####   ",
"   #       #                    ",
"    #     #                     ",
"     #####                      ",
"                                ",
"                   O            ",
"        o          O            ",
"         o         O            ",
"          o        O            ",
"           o       O            ",
"            ooooooooooo         ",
"  ......................        ",
"           @@@@@@@@@            ",
"          @  XXXXXXXXXXXXXXXXXX ",
"         @   +++++++++++        ",
"        @   +      O            ",
"           +       O            ",
"          +        O            ",
"         +         O            ",
"        +          O            ",
"                   O            ",
"                                ",
"                                "
};
