/* XPM */
static char *_40e595cf26147878d01afa146e2d4ef7DpXkzEwUmYCVALs[] = {
/* columns rows colors chars-per-pixel */
"32 32 2 1 ",
"  c #201F1F",
". c #F4E7DC",
/* pixels */
"..                            ..",
".. .......................... ..",
"   ..........................   ",
" ..............  .............. ",
" ............. .. ............. ",
" ....         .  .         .... ",
" .... ....... .  . ....... .... ",
" .... .... ... .. ... .... .... ",
" .... ..  .....  .....  .. .... ",
" .... .. . .......... . .. .... ",
" .... . .  ..........  . . .... ",
" .... ..... ..    .. ..... .... ",
" .... ....... .... ....... .... ",
" ....  ..... ..  .. .....  .... ",
" ... .. ... .. .. .. ... .. ... ",
" .. .  . .. . .... . .. .  . .. ",
" .. .  . .. . .... . .. .  . .. ",
" ... .. ... .. .. .. ... .. ... ",
" ....  ..... ..  .. .....  .... ",
" .... ....... .... ....... .... ",
" .... ..... ..    .. ..... .... ",
" .... . .  ..........  . . .... ",
" .... .. . .......... . .. .... ",
" .... ..  .....  .....  .. .... ",
" .... .... ... .. ... .... .... ",
" .... ....... .  . ....... .... ",
" ....         .  .         .... ",
" ............. .. ............. ",
" ..............  .............. ",
"   ..........................   ",
".. .......................... ..",
"..                            .."
};
