/* XPM */
static char *db1e365fdeec44c984ed1ac4fa399115E26ejYBPw1cLGYs6[] = {
/* columns rows colors chars-per-pixel */
"32 32 10 1 ",
"  c None",
". c #201F1F",
"X c #653600",
"o c #EA1616",
"O c #D27A17",
"+ c #EAA621",
"@ c #F9BF4D",
"# c #07189C",
"$ c #ECC8A0",
"% c white",
/* pixels */
"             @+++O              ",
"            @+++++O             ",
"          XXXXXXXXXXX           ",
"        @@+++++++++++O          ",
"       +@+ $$$$$$$$ ++O         ",
"           $.%$$%.$             ",
"           $$$$$$$$             ",
"           %$$$$$$%             ",
"           %$%%%%$%             ",
"           %%.oo.%%             ",
"            %%%%%%              ",
"            .%%%%.              ",
"           %......%             ",
"        ##%%##%%##%%##          ",
"        ##%%##%%##%%##          ",
"        ##%%##%%##%%##          ",
"        ##%%##%%##%%##          ",
"        ##%%##%%##%%##  O       ",
"        ##%%##%%##% ## %        ",
"        ## %##%%##% ##%         ",
"           %##%%##%  %          ",
"           %##%%##%             ",
"           %##%%##%             ",
"           %##%%##%             ",
"           ........             ",
"           ........             ",
"           ...  ...             ",
"           ..    ..             ",
"           ..    ..             ",
"         %%..    ..%%           ",
"         %%%%    %%%%           ",
"                                "
};
