/* XPM */
static char *bd5983a186aa49a38cce1e74aa8ec095J5XGyId5iYE3MrnA[] = {
/* columns rows colors chars-per-pixel */
"32 32 4 1 ",
"  c #07189C",
". c #2A3ED2",
"X c #6C79DB",
"o c white",
/* pixels */
"o   ... o ooXXo  oXXoo o ...   o",
"   .o. ooo XooX  XooX ooo .o.   ",
"  .o.. oooX oo oo oo Xooo ..o.  ",
" .o.o.oo Xoo  oooo  ooX oo.o.o. ",
".o.o. ooXXoooo oo ooooXXoo .o.o.",
".... oooXooXXX oo XXXooXooo ....",
".  oooo Xo XoXo  oXoX oX oooo  .",
" ooooo XXoXooX oo XooXoXX ooooo ",
"ooo XXXXooXoX oooo XoXooXXXX ooo",
" ooXXoooo X  ooXXoo  X ooooXXoo ",
"o Xooo XXX oo oXXo oo XXX oooX o",
"oX ooXXoo oXo oXXo oXo ooXXoo Xo",
"Xoo oXooX ooXoXXXXoXoo XooXo ooX",
"Xoo oXXX o  o      o  o XXXo ooX",
"oX o  o ooooX oooo Xoooo o  o Xo",
"  oooo ooXXXX o  o XXXXoo oooo  ",
"  oooo ooXXXX o  o XXXXoo oooo  ",
"oX o  o ooooX oooo Xoooo o  o Xo",
"Xoo oXXX o  o      o  o XXXo ooX",
"Xoo oXooX ooXoXXXXoXoo XooXo ooX",
"oX ooXXoo oXo oXXo oXo ooXXoo Xo",
"o Xooo XXX oo oXXo oo XXX oooX o",
" ooXXoooo X  ooXXoo  X ooooXXoo ",
"ooo XXXXooXoX oooo XoXooXXXX ooo",
"  oooo XXoXooX oo XooXoXX ooooo ",
".    oo Xo XoXo  oXoX oX oooo  .",
"....  ooXooXXX oo XXXooXooo ....",
".o.o.  oXXoooo oo ooooXXoo .o.o.",
" .o.o. o Xoo  oooo  ooX oo.o.o. ",
"  .o.. oooX oo oo oo Xooo ..o.  ",
"   .o.  oo XooX  XooX ooo .o.   ",
"o   ... o ooXXo  oXXoo o ...   o"
};
